src/actions/32/document-encrypted.svg

<svg viewBox="0 0 32 32" xmlns="http://www.w3.org/2000/svg">
 <defs>
  <style type="text/css">.ColorScheme-Text {
        color:#2e3440;
      }</style>
 </defs>
 <path class="ColorScheme-Text" d="m6 4v24h9v-1h-8v-22h11v7h7v3h1v-4l-7-7h-1-12zm15 12c-1.657 0-3 1.343-3 3v3h-2v6h10v-6h-2v-3c0-1.657-1.343-3-3-3zm0 1c1.105 0 2 0.895 2 2v3h-4v-3c0-1.105 0.895-2 2-2z" fill="currentColor"/>
</svg>

<svg xmlns="http://www.w3.org/2000/svg" viewBox="0 0 32 32">
  <defs id="defs3051">
    <style type="text/css" id="current-color-scheme">
      .ColorScheme-Text {
        color:#2e3440;
      }
      </style>
  </defs>
 <path style="fill:currentColor;fill-opacity:1;stroke:none" 
     d="M 6 4 L 6 28 L 15 28 L 15 27 L 7 27 L 7 5 L 18 5 L 18 12 L 25 12 L 25 15 L 26 15 L 26 11 L 19 4 L 18 4 L 6 4 z M 21 16 C 19.343 16 18 17.343 18 19 L 18 22 L 16 22 L 16 28 L 26 28 L 26 22 L 24 22 L 24 19 C 24 17.343 22.657 16 21 16 z M 21 17 C 22.105 17 23 17.895 23 19 L 23 22 L 19 22 L 19 19 C 19 17.895 19.895 17 21 17 z "
     class="ColorScheme-Text"
     />
</svg>
